X: 1
T: Alloa House (Em)
M: 3/4
L: 1/8
K: Em
GF |: E2 ED EF | G4 FE | D2 AG F<E | D4 GF |
      E2 ED EF | G4 GA | B2 {d}cB A<B | {F}G4 GA/2B/2 |
      c2 dc B<A | B2 {d}cB A<G | cA BE GE | D4 GF |
      E2 e2 d2 | {c}B2 BA G<B | G2 {AG}FE FG/2D/2 |[1 E3 FGF :|[2 E3 GBd |
   |: {d}e2 {f}ed Bd | e3 f e/2f/2g | dB GB ge | d3 dBd |
      {d}e2 {f}ed Bd | e2 {d}ef e/2f/2g | G2 {F}GB Ac | B4 GA/2B/2 |
      cd/2e/2 dc BA | Bc/2d/2 cB AG | cA BE GE | D4 GF |
      E2 e2 d2 | {c}B2 BA G<B | G2 {AG}FE FG/2D/2 |[1 E3 GBd :|[2 E4 |]



